X: 43633
T: Zeeto The Bubbleman
R: reel
M: 4/4
K: Dmixolydian
|:A2|D2AG GADD|AGGA c4|E2AG GAEE|AGGA EAGE|
D2AG GADD|AGGA c2Ac|d2cA GAcG|GAD2 D2:|
|:A2|D2dc cdAA|dccd AAcd|E2AG GAEE|AGGA EAGE|
D2dc cdAA|dccd AAcd|E2AG GAcG|GAD2 D2:|
|:GF|E2BA BEGF|EBBG AAFE|D2AG ADGF|DAAG ddFG|
E2BA BEGF|EBBG AAFE|D2AG ABBA|FGE2 E2:|
|:GA|BEEA ~G3E|BEEA ~G3E|ADDG ~F3D|ADDG ~F3D|
BEEA ~G3E|BEEA ~3B|AD~D2 ABBA|FGE2 E2:|

